X: 22201
T: La Brunante
R: reel
M: 4/4
K: Dmajor
d3A BABc|dcdA BAFA|d2dA BAFA|GDFD EF"3x"GE:|
|:~F3D EDDE|~F3D EFGE|~F3D EDCD|1 GA,FA, EFGE:|2 GABG AB c/B/A||
d3A BABc|dcdA BAFA|d2dA BAFA|GDFD EFEF|
D2DE EDFG|AB c/B/A dedB|AAFD GBAG|FGAF EFGA|
BABc dafd|gdBd ecea|f2dc Bg~g2|ebgf eAcA|
dDFD GDFD|EEA,E EA,CA,|DA,FA, GA,FA,|EEA,E EA,CA,||

